icons/star-smile-line.svg

<svg xmlns="http://www.w3.org/2000/svg" width="24" height="24" fill="none"><g clip-path="url(#a)"><g><path fill="#121212" d="M12 0.5L16.226 6.683L23.413 8.792L18.838 14.722L19.053 22.208L12 19.69L4.94704 22.208L5.16204 14.722L0.587036 8.792L7.77404 6.683L12 0.5ZM12 4.044L9.02204 8.402L3.95704 9.887L7.18204 14.065L7.02904 19.34L12 17.566L16.97 19.34L16.818 14.065L20.042 9.887L14.978 8.402L12 4.044ZM10 12C10 12.5304 10.2108 13.0391 10.5858 13.4142C10.9609 13.7893 11.4696 14 12 14C12.5305 14 13.0392 13.7893 13.4142 13.4142C13.7893 13.0391 14 12.5304 14 12H16C16 13.0609 15.5786 14.0783 14.8285 14.8284C14.0783 15.5786 13.0609 16 12 16C10.9392 16 9.92175 15.5786 9.17161 14.8284C8.42146 14.0783 8.00004 13.0609 8.00004 12H10Z"/></g></g><defs><clipPath id="a"><rect width="24" height="24" fill="white"/></clipPath></defs></svg>

<svg width="24" height="24" fill="none" xmlns="http://www.w3.org/2000/svg"><g clip-path="url(#a)"><path d="m12 .5 4.226 6.183 7.187 2.109-4.575 5.93.215 7.486L12 19.69l-7.053 2.518.215-7.486-4.575-5.93 7.187-2.109L12 .5Zm0 3.544L9.022 8.402 3.957 9.887l3.225 4.178-.153 5.275L12 17.566l4.97 1.774-.152-5.275 3.224-4.178-5.064-1.485L12 4.044ZM10 12a2 2 0 0 0 4 0h2a4 4 0 1 1-8 0h2Z" /></g><defs><clipPath id="a"><path fill="#fff" d="M0 0h24v24H0z"/></clipPath></defs></svg>
